src/scalable/apps/input-tablet.svg

<?xml version="1.0" encoding="UTF-8" standalone="no"?>
<svg
   xmlns:dc="http://purl.org/dc/elements/1.1/"
   xmlns:cc="http://creativecommons.org/ns#"
   xmlns:rdf="http://www.w3.org/1999/02/22-rdf-syntax-ns#"
   xmlns:svg="http://www.w3.org/2000/svg"
   xmlns="http://www.w3.org/2000/svg"
   xmlns:xlink="http://www.w3.org/1999/xlink"
   xmlns:sodipodi="http://sodipodi.sourceforge.net/DTD/sodipodi-0.dtd"
   xmlns:inkscape="http://www.inkscape.org/namespaces/inkscape"
   width="64"
   height="64"
   version="1"
   id="svg16"
   sodipodi:docname="blueman-handheld.svg"
   inkscape:version="0.92.2 2405546, 2018-03-11">
  <metadata
     id="metadata22">
    <rdf:RDF>
      <cc:Work
         rdf:about="">
        <dc:format>image/svg+xml</dc:format>
        <dc:type
           rdf:resource="http://purl.org/dc/dcmitype/StillImage" />
      </cc:Work>
    </rdf:RDF>
  </metadata>
  <defs
     id="defs20">
    <linearGradient
       inkscape:collect="always"
       id="linearGradient845">
      <stop
         style="stop-color:#000000;stop-opacity:1;"
         offset="0"
         id="stop841" />
      <stop
         style="stop-color:#000000;stop-opacity:0;"
         offset="1"
         id="stop843" />
    </linearGradient>
    <linearGradient
       inkscape:collect="always"
       xlink:href="#linearGradient845"
       id="linearGradient847"
       x1="25.652344"
       y1="33"
       x2="58"
       y2="33"
       gradientUnits="userSpaceOnUse" />
  </defs>
  <sodipodi:namedview
     pagecolor="#ffffff"
     bordercolor="#666666"
     borderopacity="1"
     objecttolerance="10"
     gridtolerance="10"
     guidetolerance="10"
     inkscape:pageopacity="0"
     inkscape:pageshadow="2"
     inkscape:window-width="1920"
     inkscape:window-height="1022"
     id="namedview18"
     showgrid="true"
     inkscape:snap-bbox="true"
     inkscape:bbox-nodes="true"
     inkscape:zoom="5.2149125"
     inkscape:cx="-9.0073985"
     inkscape:cy="36.265501"
     inkscape:window-x="0"
     inkscape:window-y="28"
     inkscape:window-maximized="1"
     inkscape:current-layer="svg16">
    <inkscape:grid
       type="xygrid"
       id="grid829" />
  </sodipodi:namedview>
  <rect
     style="fill:#4f4f4f;stroke-width:0.94146889"
     width="52"
     height="42"
     x="6"
     y="12"
     rx="3"
     ry="3"
     id="rect4" />
  <path
     style="fill:url(#linearGradient847);stroke-width:0.94146889;opacity:0.25;fill-opacity:1"
     d="M 45.779297 12 A 50.990326 50.990326 0 0 1 45.830078 13.427734 A 50.990326 50.990326 0 0 1 25.652344 54 L 55 54 C 56.662 54 58 52.662 58 51 L 58 15 C 58 13.338 56.662 12 55 12 L 45.779297 12 z "
     id="rect836" />
  <circle
     style="fill:#1ea362"
     cx="45"
     cy="43"
     r="16"
     id="circle10" />
  <circle
     id="circle849"
     r="13"
     cy="43"
     cx="45"
     style="fill:#000000;stroke-width:0.8125;opacity:0.15" />
  <path
     style="fill:#ffffff"
     d="m 37.000125,47.435875 v 3.564 h 3.564 l 9.001,-9.001 -3.564,-3.564 z m 15.717,-8.578 c 0.377,-0.377 0.377,-0.971 0,-1.348 l -2.227,-2.227 c -0.377,-0.377 -0.971,-0.377 -1.348,0 l -1.862,1.873 3.564,3.564 z"
     id="path14"
     inkscape:connector-curvature="0" />
  <path
     style="fill:#ffffff;stroke-width:0.94146889;opacity:0.15"
     d="M 9 12 C 7.338 12 6 13.338 6 15 L 6 51 C 6 52.662 7.338 54 9 54 L 15 54 L 15 12 L 9 12 z "
     id="rect831" />
</svg>

<svg xmlns="http://www.w3.org/2000/svg" xmlns:xlink="http://www.w3.org/1999/xlink" width="64" height="64" version="1"><defs><linearGradient id="a"><stop offset="0"/><stop offset="1" stop-opacity="0"/></linearGradient><linearGradient xlink:href="#a" id="b" x1="25.652" y1="33" x2="58" y2="33" gradientUnits="userSpaceOnUse"/></defs><rect width="52" height="42" x="6" y="12" rx="3" ry="3" fill="#4f4f4f"/><path d="M45.78 12a50.99 50.99 0 0 1 .05 1.428A50.99 50.99 0 0 1 25.652 54H55c1.662 0 3-1.338 3-3V15c0-1.662-1.338-3-3-3h-9.22z" fill="url(#b)" opacity=".25"/><circle cx="45" cy="43" r="16" fill="#1ea362"/><circle r="13" cy="43" cx="45" opacity=".15"/><path d="M37 47.436V51h3.564l9.001-9.001-3.564-3.564zm15.717-8.578a.945.945 0 0 0 0-1.348l-2.227-2.227a.945.945 0 0 0-1.348 0l-1.862 1.873 3.564 3.564z" fill="#fff"/><path d="M9 12c-1.662 0-3 1.338-3 3v36c0 1.662 1.338 3 3 3h6V12H9z" fill="#fff" opacity=".15"/></svg>
